!!!OTL: T820_Bri-w40p229-230m381-394-EDITED
**kern	**dynam	**kern	**dynam	**kern	**dynam	**kern	**dynam	**text	**kern	**dynam	**text	**kern	**kern	**dynam	**kern	**dynam	**kern	**dynam	**kern	**kern	**dynam	**kern	**dynam	**text
*part10	*	*part9	*	*part8	*	*part7	*	*	*part6	*	*	*part5	*part5	*	*part4	*	*part3	*	*part2	*part2	*	*part1	*	*
*staff12	*	*staff11	*	*staff10	*	*staff9	*	*	*staff8	*	*	*staff7	*staff6	*	*staff5	*	*staff4	*	*staff3	*staff2	*	*staff1	*	*
*I"Double Bass	*	*I"Cello	*	*I"Viola	*	*I"Baritone solo	*	*	*I"Tenor solo	*	*	*I"Harp	*	*	*I"Bassoon	*	*I"Clarinet in A	*	*I"Organ\nor\nHarmonium	*	*	*I"Boys\n(distant)	*	*
*I'D.B.	*	*I'Vc.	*	*I'Vla.	*	*I'Bar.\nsolo	*	*	*I'T. solo	*	*	*I'Hp.	*	*	*I'Bsn.	*	*I'A Cl.	*	*I'Organ	*	*	*I'Boys	*	*
*clefF4	*	*clefF4	*	*clefC3	*	*clefF4	*	*	*clefGv2	*	*	*clefF4	*clefG2	*	*clefC4	*	*clefG2	*	*clefF4	*clefG2	*	*clefG2	*	*
*ITrd0c0	*	*	*	*	*	*	*	*	*	*	*	*	*	*	*	*	*ITrd2c3	*	*	*	*	*	*	*
*k[f#c#g#]	*	*k[f#c#g#]	*	*k[f#c#g#]	*	*k[f#c#g#]	*	*	*k[f#c#g#]	*	*	*k[f#c#g#]	*k[f#c#g#]	*	*k[f#c#g#]	*	*k[f#c#g#]	*	*k[f#c#g#]	*k[f#c#g#]	*	*k[f#c#g#]	*	*
*A:	*	*A:	*	*A:	*	*A:	*	*	*A:	*	*	*A:	*A:	*	*A:	*	*A:	*	*A:	*A:	*	*A:	*	*
*M2/4	*	*M2/4	*	*M2/4	*	*M2/4	*	*	*M2/4	*	*	*M2/4	*M2/4	*	*M2/4	*	*M2/4	*	*M2/4	*M2/4	*	*M2/4	*	*
!!: Organ and boys choir need no stems on whole notes and eight notes -> quarter notes
!!: 2.r; in bassoon, harp, tenor solo, and baritone solo should be centered whole-rests
!!: Cresc. and decresc. are not ending at proper spots
=1	=1	=1	=1	=1	=1	=1	=1	=1	=1	=1	=1	=1	=1	=1	=1	=1	=1	=1	=1	=1	=1	=1	=1	=1
!	!	!	!	!	!	!	!	!	!	!	!	!	!	!	!	!	!	!	!LO:N:head=whole	!LO:N:head=whole	!	!LO:N:head=whole	!	!
!	!	!	!	!	!	!	!	!	!	!	!	!	!	!	!	!	!	!	!	!LO:N:xstem	!	!	!	!
2d_	.	4.E	.	4B]	.	8r	.	.	8dL	.	now,	8EL]	8dL	.	8dL	.	8EL]	.	[2D [2E [2B [2d	[2a	pp	2r	.	.
.	.	.	.	.	.	8F#L	.	sleep	8BJ	.	.	8F#	8BJ	.	8BJ	.	8F#	.	.	.	.	.	.	.
.	.	.	.	4A	.	8A	.	.	[4A	.	.	8A	4A<	.	4A	.	8A	.	.	.	.	.	.	.
.	.	[8A	.	.	.	8EJ	.	.	.	.	.	8EJ	.	.	.	.	8EJ	.	.	.	.	.	.	.
=2	=2	=2	=2	=2	=2	=2	=2	=2	=2	=2	=2	=2	=2	=2	=2	=2	=2	=2	=2	=2	=2	=2	=2	=2
!	!	!	!	!	!	!	!	!	!	!	!	!	!	!	!	!	!	!	!LO:N:head=whole	!LO:N:head=half	!	!LO:N:head=half	!	!
2d_	.	4.A]	.	4B	.	[2D	.	now,	4A]	.	.	2D	8B<L	.	8B	.	4D	.	2.D_ 2.E_ 2.B_ 2.d_	4a]	.	4a	p	In
.	.	.	.	.	.	.	>	.	.	.	.	.	8A<	.	4A	.	.	.	.	.	.	.	.	.
!	!	!	!	!	!	!	!	!	!	!	!	!	!	!	!	!	!	!	!	!LO:N:head=half	!	!LO:N:head=half	!	!
.	.	.	.	4A	.	.	.	.	[4E	pp	now,	.	8E<	.	.	.	4E	>	.	4b	.	4b	.	pa-
*	*	*	*	*	*	*	*	*	*	*	*	*	*	*	*clefF4	*	*	*	*	*	*	*	*	*
.	.	[8F#	.	.	.	.	.	.	.	>	.	.	8F#<J	.	8F#	>	.	.	.	.	.	.	.	.
=3	=3	=3	=3	=3	=3	=3	=3	=3	=3	=3	=3	=3	=3	=3	=3	=3	=3	=3	=-	=-	=-	=-	=-	=-
!	!	!	!	!	!	!	!	!	!	!	!	!	!	!	!	!	!	!	!	!LO:N:head=half	!	!LO:N:head=half	!	!
2d_	>	4F#]	>	[2E	>	8D]	]	.	8E]	]	.	8DL	8D<	>	4.E	.	8DL	.	.	4cc#	.	4cc#	.	ra-
.	.	.	.	.	.	8r	.	.	8r	.	.	8D	8ryy	.	.	.	8D	.	.	.	.	.	.	.
=-	=-	=-	=-	=-	=-	=-	=-	=-	=-	=-	=-	=-	=-	=-	=-	=-	=-	=-	=3	=3	=3	=3	=3	=3
!	!	!	!	!	!	!	!	!	!	!	!	!	!	!	!	!	!	!	!LO:N:head=whole	!LO:N:head=half	!	!LO:N:head=half	!	!
.	.	[4E	.	.	.	4r	.	.	4r	.	.	8E	4ryy	.	.	.	8E	.	2D_ 2E_ 2B_ 2d_	4dd	.	4dd	.	di-
.	.	.	.	.	.	.	.	.	.	.	.	[8DJ	.	]	8r	]	[8DJ	.	.	.	.	.	.	.
=4	=4	=4	=4	=4	=4	=4	=4	=4	=4	=4	=4	=4	=4	=4	=4	=4	=4	=4	=-	=-	=-	=-	=-	=-
!	!	!	!	!	!	!	!	!	!	!	!	!	!	!	!	!	!	!	!	!LO:N:head=half	!	!LO:N:head=half	!	!
8d]	]	8E]	]	8E]	]	2ryy	.	.	2ryy	.	.	8D]	2ryy	.	2ryy	.	8D]	]	.	4cc#	.	4cc#	.	-sum:
8r	.	8r	.	8r	.	.	.	.	.	.	.	8r	.	.	.	.	8r	.	.	.	.	.	.	.
=-	=-	=-	=-	=-	=-	=-	=-	=-	=-	=-	=-	=-	=-	=-	=-	=-	=-	=-	=4	=4	=4	=4	=4	=4
!	!	!	!	!	!	!	!	!	!	!	!	!	!	!	!	!	!	!	!LO:N:head=whole	!LO:N:head=half	!	!LO:N:head=half	!	!
4r;	.	4r;	.	4r;	.	.	.	.	.	.	.	4r;	.	.	.	.	4r;	.	2.D_ 2.E_ 2.B_ 2.d_	4b	.	4b	.	de-
=5	=5	=5	=5	=5	=5	=5	=5	=5	=5	=5	=5	=5	=5	=5	=5	=5	=5	=5	=-	=-	=-	=-	=-	=-
!	!	!	!	!	!	!	!	!	!	!	!	!	!	!	!	!	!	!	!	!LO:N:head=half	!	!LO:N:head=half	!	!
4ryy	.	4ryy	.	4ryy	.	2.r;	.	.	2.r;	.	.	4ryy	2.r;	.	2.r;	.	4ryy	.	.	4a	.	4a	.	du-
!	!	!	!	!	!	!	!	!	!	!	!	!	!	!	!	!	!	!	!	!LO:N:head=half	!	!LO:N:head=half	!	!
4ryy	.	4ryy	.	4ryy	.	.	.	.	.	.	.	4ryy	.	.	.	.	4ryy	.	.	4b	.	4b	.	-cant
=-	=-	=-	=-	=-	=-	=-	=-	=-	=-	=-	=-	=-	=-	=-	=-	=-	=-	=-	=5	=5	=5	=5	=5	=5
!	!	!	!	!	!	!	!	!	!	!	!	!	!	!	!	!	!	!	!LO:N:head=whole	!LO:N:head=half	!	!LO:N:head=quarter	!	!
4ryy	.	4ryy	.	4ryy	.	.	.	.	.	.	.	4ryy	.	.	.	.	4ryy	.	2D_ 2E_ 2B_ 2d_	4cc#	.	[8cc#	.	te
!	!	!	!	!	!	!	!	!	!	!	!	!	!	!	!	!	!	!	!	!	!	!LO:N:head=quarter	!	!
.	.	.	.	.	.	.	.	.	.	.	.	.	.	.	.	.	.	.	.	.	.	8cc#]	.	An-
=6	=6	=6	=6	=6	=6	=6	=6	=6	=6	=6	=6	=6	=6	=6	=6	=6	=6	=6	=-	=-	=-	=-	=-	=-
!	!	!	!	!	!	!	!	!	!	!	!	!	!	!	!	!	!	!	!	!LO:N:head=half	!	!LO:N:head=half	!	!
8r	.	2r	.	4r	.	2r	.	.	2r	.	.	8r	2r	.	2r	.	8r	.	.	4b	.	4b	.	ge-
[4.d	pp	.	.	.	.	.	.	.	.	.	.	8DL	.	pp	.	.	8DL	ppp	.	.	.	.	.	.
=-	=-	=-	=-	=-	=-	=-	=-	=-	=-	=-	=-	=-	=-	=-	=-	=-	=-	=-	=6	=6	=6	=6	=6	=6
!	!	!	!	!	!	!	!	!	!	!	!	!	!	!	!	!	!	!	!LO:N:head=whole	!LO:N:head=whole	!	!LO:N:head=whole	!	!
!	!	!	!	!	!	!	!	!	!	!	!	!	!	!	!	!	!	!	!	!LO:N:xstem	!	!LO:N:xstem	!	!
.	.	.	.	[4E	pp	.	.	.	.	.	.	8E	.	.	.	.	8E	.	2D_ 2E_ 2B_ 2d_	[2a	.	[2a	>	li:
.	.	.	.	.	.	.	.	.	.	.	.	8AJ	.	.	.	.	8AJ	.	.	.	.	.	.	.
*	*	*	*	*	*	*	*	*	*	*	*	*	*	*	*clefC4	*	*	*	*	*	*	*	*	*
=7	=7	=7	=7	=7	=7	=7	=7	=7	=7	=7	=7	=7	=7	=7	=7	=7	=7	=7	=-	=-	=-	=-	=-	=-
2d_	.	4B	pp	2E]	.	2r	.	.	8B	pp	let	8BL	[2d	.	[2d	ppp	8BL	.	.	.	.	.	.	.
.	.	.	.	.	.	.	.	.	4A	.	us	8A	.	.	.	.	8A	.	.	.	.	.	.	.
!	!	!	!	!	!	!	!	!	!	!	!	!	!	!	!	!	!	!	!LO:N:head=quarter	!LO:N:head=quarter	!	!LO:N:head=quarter	!	!
.	.	4A	.	.	.	.	.	.	.	.	.	8E	.	.	.	.	8E	.	8D] 8E] 8B] 8d]	8a]	.	8a]	.	.
!	!	!	!	!	!	!	!	!	!	!	!	!	!	!	!	!	!	!	!	!LO:N:head=quarter	!	!LO:N:head=quarter	!	!
.	.	.	.	.	.	.	.	.	8B	.	.	8BJ	.	.	.	.	8BJ	.	8ryy	8r	.	8r	]	.
=8	=8	=8	=8	=8	=8	=8	=8	=8	=8	=8	=8	=8	=8	=8	=8	=8	=8	=8	=7	=7	=7	=7	=7	=7
*	*	*	*	*	*	*	*	*	*	*	*	*	*	*	*	*	*	*	*Xtuplet	*Xtuplet	*	*Xtuplet	*	*
2d_	.	4d	.	4F#	.	8r	.	.	4d	<	.	8F#L	4d]	.	4d]	.	8F#L	.	8%10r;	8%10r;	.	8%10r;	.	.
.	.	.	.	.	.	4.E	pp	let	.	.	.	8E	.	.	.	.	8E	.	.	.	.	.	.	.
.	.	4A	.	4E	.	.	.	.	8eL	[	sleep	8A	8eL	.	8eL	.	8A	.	.	.	.	.	.	.
.	.	.	.	.	.	.	.	.	8dJ	.	.	8EJ	8dJ	.	8dJ	.	8EJ	.	.	.	.	.	.	.
=9	=9	=9	=9	=9	=9	=9	=9	=9	=9	=9	=9	=9	=9	=9	=9	=9	=9	=9	=-	=-	=-	=-	=-	=-
2d_	.	4B	.	[2F#	.	4F#	.	.	8BL	.	.	4F#	8B	.	8B	.	4F#	.	.	.	.	.	.	.
.	.	.	.	.	.	.	.	.	8AJ	.	.	.	4A	.	4A	.	.	.	.	.	.	.	.	.
.	.	4A	.	.	.	8AL	.	us	[4B	.	.	[4B	.	.	.	.	[4B	.	.	.	.	.	.	.
.	.	.	.	.	.	8BJ	.	.	.	.	.	.	8B	.	8B	.	.	.	.	.	.	.	.	.
=10	=10	=10	=10	=10	=10	=10	=10	=10	=10	=10	=10	=10	=10	=10	=10	=10	=10	=10	=-	=-	=-	=-	=-	=-
2d_	.	4.B	.	8F#]	.	8c#	.	sleep	4B]	>	.	4B]	8c#L	.	8c#L	<	4B]	.	.	.	.	.	.	.
.	.	.	.	[8A	.	4.B	>	.	.	.	.	.	8B	.	8B	[	.	.	.	.	.	.	.	.
=-	=-	=-	=-	=-	=-	=-	=-	=-	=-	=-	=-	=-	=-	=-	=-	=-	=-	=-	=8	=8	=8	=8	=8	=8
!	!	!	!	!	!	!	!	!	!	!	!	!	!	!	!	!	!	!	!LO:N:head=whole	!LO:N:head=half	!	!LO:N:head=half	!	!
.	.	.	.	4A_ [4f#	.	.	.	.	[4A	]	now,	4A	8f#	.	8f#	.	4A	.	[2.D [2.E [2.B [2.d	4cc#	p	4cc#	p	in
.	.	8A	.	.	.	.	.	.	.	.	.	.	8eJ	.	8eJ	.	.	.	.	.	.	.	.	.
=11	=11	=11	=11	=11	=11	=11	=11	=11	=11	=11	=11	=11	=11	=11	=11	=11	=11	=11	=-	=-	=-	=-	=-	=-
!	!	!	!	!	!	!	!	!	!	!	!	!	!	!	!	!	!	!	!	!LO:N:head=half	!	!LO:N:head=quarter	!	!
2d_	.	4d	.	4A_ 4f#]	.	[2E	]	now,	2A_	.	.	8EL	8dL	.	8dL	.	8EL	.	.	4dd	.	[8dd	.	tu-
!	!	!	!	!	!	!	!	!	!	!	!	!	!	!	!	!	!	!	!	!	!	!LO:N:head=quarter	!	!
.	.	.	.	.	.	.	.	.	.	.	.	8DJ	8B<	.	8B	.	8DJ	.	.	.	.	8dd]	.	-o
!	!	!	!	!	!	!	!	!	!	!	!	!	!	!	!	!	!	!	!	!LO:N:head=half	!	!LO:N:head=half	!	!
.	.	4B	.	4A]	.	.	.	.	.	.	.	4E	8A<	.	8A	.	[4E	.	.	4ee	.	4ee	.	ad-
.	.	.	.	.	.	.	.	.	.	.	.	.	N[8E<J	.	[8EJ	.	.	.	.	.	.	.	.	.
=12	=12	=12	=12	=12	=12	=12	=12	=12	=12	=12	=12	=12	=12	=12	=12	=12	=12	=12	=9	=9	=9	=9	=9	=9
!	!	!	!	!	!	!	!	!	!	!	!	!	!	!	!	!	!	!	!LO:N:head=whole	!LO:N:head=half	!	!LO:N:head=half	!	!
2d_	.	4A	.	4.E	>	8E]	.	.	8A]	.	.	8ELN]	2r	.	2E]	.	8EL]	.	2D_ 2E_ 2B_ 2d_	4ff#	.	4ff#	.	ven-
.	.	.	.	.	.	8r	.	.	8r	.	.	8D	.	>	.	>	8D	>	.	.	.	.	.	.
!	!	!	!	!	!	!	!	!	!	!	!	!	!	!	!	!	!	!	!	!LO:N:head=half	!	!LO:N:head=half	!	!
.	>	[4E	>	.	]	4r	.	.	4r	.	.	8A	.	.	.	.	8A	.	.	4ee	.	4ee	.	-tu
.	.	.	.	8r	.	.	.	.	.	.	.	8EJ	.	]	.	.	8EJ	]	.	.	.	.	.	.
=13	=13	=13	=13	=13	=13	=13	=13	=13	=13	=13	=13	=13	=13	=13	=13	=13	=13	=13	=10	=10	=10	=10	=10	=10
!	!	!	!	!	!	!	!	!	!	!	!	!	!	!	!	!	!	!	!LO:N:head=whole	!LO:N:head=half	!	!LO:N:head=half	!	!
8d]	]	8E]	]	2r	.	2r	.	.	2r	.	.	8D	2r	.	2r	]	8D	.	2D_ 2E_ 2B_ 2d_	4dd	.	4dd	.	sus-
8r	.	8r	.	.	.	.	.	.	.	.	.	8r	.	.	.	.	8r	.	.	.	.	.	.	.
!	!	!	!	!	!	!	!	!	!	!	!	!	!	!	!	!	!	!	!	!LO:N:head=half	!	!LO:N:head=half	!	!
4r	.	4r	.	.	.	.	.	.	.	.	.	4r	.	.	.	.	4r	.	.	4cc#	.	4cc#	.	ci-
=14	=14	=14	=14	=14	=14	=14	=14	=14	=14	=14	=14	=14	=14	=14	=14	=14	=14	=14	=11	=11	=11	=11	=11	=11
!	!	!	!	!	!	!	!	!	!	!	!	!	!	!	!	!	!	!	!LO:N:head=whole	!LO:N:head=half	!	!LO:N:head=quarter	!	!
4ryy	.	4ryy	.	4ryy	.	4ryy	.	.	4ryy	.	.	4ryy	4ryy	.	4ryy	.	4ryy	.	2.D_ 2.E_ 2.B_ 2.d_	4b	.	[8b	.	pi-
!	!	!	!	!	!	!	!	!	!	!	!	!	!	!	!	!	!	!	!	!	!	!LO:N:head=quarter	!	!
.	.	.	.	.	.	.	.	.	.	.	.	.	.	.	.	.	.	.	.	.	.	8b]	.	-ant
=15	=15	=15	=15	=15	=15	=15	=15	=15	=15	=15	=15	=15	=15	=15	=15	=15	=15	=15	=-	=-	=-	=-	=-	=-
!	!	!	!	!	!	!	!	!	!	!	!	!	!	!	!	!	!	!	!	!LO:N:head=half	!	!LO:N:head=half	!	!
[2d	pp	4r	.	2r	.	2r	.	.	2r	.	.	8r	2r	.	2r	.	8r	.	.	4a	.	4a	.	te
.	.	.	.	.	.	.	.	.	.	.	.	8BL	.	pp	.	.	8BL	ppp	.	.	.	.	.	.
!	!	!	!	!	!	!	!	!	!	!	!	!	!	!	!	!	!	!	!	!LO:N:head=half	!	!LO:N:head=half	!	!
.	.	4F#	pp	.	.	.	.	.	.	.	.	8A	.	.	.	.	8A	.	.	4b	.	4b	.	.
.	.	.	.	.	.	.	.	.	.	.	.	8F#J	.	.	.	.	8F#J	.	.	.	.	.	.	.
=16	=16	=16	=16	=16	=16	=16	=16	=16	=16	=16	=16	=16	=16	=16	=16	=16	=16	=16	=12	=12	=12	=12	=12	=12
!	!	!	!	!	!	!	!	!	!	!	!	!	!	!	!	!	!	!	!LO:N:head=whole	!LO:N:head=half	!	!LO:N:head=half	!	!
2d]	.	2A	.	4r	.	8B	pp	let	2r	.	.	8B	4r	.	4r	.	8B	.	2D_ 2E_ 2B_ 2d_	4cc#	.	4cc#	.	Mor-
.	.	.	.	.	.	4A	.	us	.	.	.	4A	.	.	.	.	4A	.	.	.	.	.	.	.
!	!	!	!	!	!	!	!	!	!	!	!	!	!	!	!	!	!	!	!	!LO:N:head=half	!	!LO:N:head=half	!	!
.	.	.	.	[4e	pp	.	.	.	.	.	.	.	8eL	.	8eL	ppp	.	.	.	4b	.	4b	.	-ty
.	.	.	.	.	.	8d	.	.	.	.	.	[8E	[8dJ	.	[8dJ	.	8E	.	.	.	.	.	.	.
==	==	==	==	==	==	==	==	==	==	==	==	==	==	==	==	==	==	==	==	==	==	==	==	==
*-	*-	*-	*-	*-	*-	*-	*-	*-	*-	*-	*-	*-	*-	*-	*-	*-	*-	*-	*-	*-	*-	*-	*-	*-
!!!system-decoration: s1{(s2,s3)}[(s4,s5)]{(s6,s7)}[(s8,s9)][(s10,s11,s12)]
!!!RDF**kern: < = below
!!!RDF**kern: N = linked
